src/xmb/retrosystem/Capcom - CP System I.svg

<svg xmlns="http://www.w3.org/2000/svg" xml:space="preserve" width="256" height="256" viewBox="0 0 341.333 341.333"><path d="M250.667 325.333H96V240h154.667Z" style="fill:#ccc;fill-opacity:1;fill-rule:nonzero;stroke:none;stroke-width:1.33333325"/><path d="M0 0h-32c-2.2 0-4 1.8-4 4v12c0 2.2 1.8 4 4 4H0c2.2 0 4-1.8 4-4V4c0-2.2-1.8-4-4-4" style="fill:#dadbd5;fill-opacity:1;fill-rule:nonzero;stroke:none" transform="matrix(1.33333 0 0 -1.33333 234.667 272)"/><path d="M0 0h-32c-2.2 0-4 1.8-4 4v20c0 2.2 1.8 4 4 4H0c2.2 0 4-1.8 4-4V4c0-2.2-1.8-4-4-4" style="fill:#dadbd5;fill-opacity:1;fill-rule:nonzero;stroke:none" transform="matrix(1.33333 0 0 -1.33333 234.667 314.667)"/><path d="m0 0-5.276 6.552-30 4h-36l-30-4-5.336-6.671a8 8 0 0 1-.807-2.807l-11.857-122.522h128L.828-3.063A8 8 0 0 1 0 0" style="fill:#dadbd5;fill-opacity:1;fill-rule:nonzero;stroke:none" transform="matrix(1.33333 0 0 -1.33333 247.035 30.07)"/><path d="M0 0h-132a4 4 0 0 0-4 4v8H4V4a4 4 0 0 0-4-4" style="fill:#dadbd5;fill-opacity:1;fill-rule:nonzero;stroke:none" transform="matrix(1.33333 0 0 -1.33333 258.667 240)"/><path d="m0 0-8-24 72-4 68 4-4 24z" style="fill:#ccc;fill-opacity:1;fill-rule:nonzero;stroke:none" transform="matrix(1.33333 0 0 -1.33333 88 192)"/><path d="m0 0-2.722-8.166a2 2 0 0 1 1.773-2.629l53.155-3.322a128 128 0 0 1 16.498.034l49.169 3.278a2 2 0 0 1 1.765 2.628L116.912 0a2 2 0 0 1-1.897 1.367H1.897A2 2 0 0 1 0 0" style="fill:#354f9f;fill-opacity:1;fill-rule:nonzero;stroke:none" transform="matrix(1.33333 0 0 -1.33333 92.725 204.49)"/><path d="M0 0c0-1.104-1.343-2-3-2s-3 .896-3 2 1.343 2 3 2 3-.896 3-2" style="fill:#fff;fill-opacity:1;fill-rule:nonzero;stroke:none" transform="matrix(1.33333 0 0 -1.33333 248 208)"/><path d="M0 0c0-1.104-1.343-2-3-2s-3 .896-3 2 1.343 2 3 2 3-.896 3-2" style="fill:#ed4792;fill-opacity:1;fill-rule:nonzero;stroke:none" transform="matrix(1.33333 0 0 -1.33333 242.667 216)"/><path d="M0 0c0-1.104-1.343-2-3-2s-3 .896-3 2 1.343 2 3 2 3-.896 3-2" style="fill:#fff;fill-opacity:1;fill-rule:nonzero;stroke:none" transform="matrix(1.33333 0 0 -1.33333 237.333 208)"/><path d="M0 0c0-1.104-1.343-2-3-2s-3 .896-3 2 1.343 2 3 2 3-.896 3-2" style="fill:#ed4792;fill-opacity:1;fill-rule:nonzero;stroke:none" transform="matrix(1.33333 0 0 -1.33333 232 216)"/><path d="M0 0c0-1.104-1.343-2-3-2s-3 .896-3 2 1.343 2 3 2 3-.896 3-2" style="fill:#fff;fill-opacity:1;fill-rule:nonzero;stroke:none" transform="matrix(1.33333 0 0 -1.33333 226.667 208)"/><path d="M0 0c0-1.104-1.343-2-3-2s-3 .896-3 2 1.343 2 3 2 3-.896 3-2" style="fill:#eac500;fill-opacity:1;fill-rule:nonzero;stroke:none" transform="matrix(1.33333 0 0 -1.33333 182.667 210.667)"/><path d="M0 0c0-1.104-1.343-2-3-2s-3 .896-3 2 1.343 2 3 2 3-.896 3-2" style="fill:#eac500;fill-opacity:1;fill-rule:nonzero;stroke:none" transform="matrix(1.33333 0 0 -1.33333 172 210.667)"/><path d="M0 0c0-1.104-1.343-2-3-2s-3 .896-3 2 1.343 2 3 2 3-.896 3-2" style="fill:#ed4792;fill-opacity:1;fill-rule:nonzero;stroke:none" transform="matrix(1.33333 0 0 -1.33333 221.333 216)"/><path d="M0 0c0-1.104-1.343-2-3-2s-3 .896-3 2 1.343 2 3 2 3-.896 3-2" style="fill:#ed4792;fill-opacity:1;fill-rule:nonzero;stroke:none" transform="matrix(1.33333 0 0 -1.33333 152 208)"/><path d="M0 0c0-1.104-1.343-2-3-2s-3 .896-3 2 1.343 2 3 2 3-.896 3-2" style="fill:#fff;fill-opacity:1;fill-rule:nonzero;stroke:none" transform="matrix(1.33333 0 0 -1.33333 146.667 216)"/><path d="M0 0c0-1.104-1.343-2-3-2s-3 .896-3 2 1.343 2 3 2 3-.896 3-2" style="fill:#ed4792;fill-opacity:1;fill-rule:nonzero;stroke:none" transform="matrix(1.33333 0 0 -1.33333 141.333 208)"/><path d="M0 0c0-1.104-1.343-2-3-2s-3 .896-3 2 1.343 2 3 2 3-.896 3-2" style="fill:#fff;fill-opacity:1;fill-rule:nonzero;stroke:none" transform="matrix(1.33333 0 0 -1.33333 136 216)"/><path d="M0 0c0-1.104-1.343-2-3-2s-3 .896-3 2 1.343 2 3 2 3-.896 3-2" style="fill:#ed4792;fill-opacity:1;fill-rule:nonzero;stroke:none" transform="matrix(1.33333 0 0 -1.33333 130.667 208)"/><path d="M0 0c0-1.104-1.343-2-3-2s-3 .896-3 2 1.343 2 3 2 3-.896 3-2" style="fill:#fff;fill-opacity:1;fill-rule:nonzero;stroke:none" transform="matrix(1.33333 0 0 -1.33333 125.333 216)"/><path d="M0 0c0-1.657-2.687-3-6-3s-6 1.343-6 3 2.687 3 6 3 6-1.343 6-3" style="fill:#191919;fill-opacity:1;fill-rule:nonzero;stroke:none" transform="matrix(1.33333 0 0 -1.33333 210.667 212)"/><path d="M0 0c0-1.657-2.687-3-6-3s-6 1.343-6 3 2.687 3 6 3 6-1.343 6-3" style="fill:#191919;fill-opacity:1;fill-rule:nonzero;stroke:none" transform="matrix(1.33333 0 0 -1.33333 114.667 212)"/><path d="M0 0c-1.1 0-2 .9-2 2v4c0 1.1.9 2 2 2s2-.9 2-2V2c0-1.1-.9-2-2-2" style="fill:#ccc;fill-opacity:1;fill-rule:nonzero;stroke:none" transform="matrix(1.33333 0 0 -1.33333 106.667 213.333)"/><path d="M0 0a4 4 0 1 0-8 0 4 4 0 0 0 8 0" style="fill:#ed4792;fill-opacity:1;fill-rule:nonzero;stroke:none" transform="matrix(1.33333 0 0 -1.33333 112 202.667)"/><path d="M0 0c-1.1 0-2 .9-2 2v4c0 1.1.9 2 2 2s2-.9 2-2V2c0-1.1-.9-2-2-2" style="fill:#ccc;fill-opacity:1;fill-rule:nonzero;stroke:none" transform="matrix(1.33333 0 0 -1.33333 202.667 213.333)"/><path d="M0 0a4 4 0 1 0-8 0 4 4 0 0 0 8 0" style="fill:#fff;fill-opacity:1;fill-rule:nonzero;stroke:none" transform="matrix(1.33333 0 0 -1.33333 208 202.667)"/><path d="M0 0h-105.765a4 4 0 0 0-3.997 4.153l7.696 98.004a2 2 0 0 0 1.993 1.843h96.226a2 2 0 0 0 1.999-1.923l3.846-100A2 2 0 0 0 0 0" style="fill:#404040;fill-opacity:1;fill-rule:nonzero;stroke:none" transform="matrix(1.33333 0 0 -1.33333 245.23 192)"/><path d="M0 0h-87.543a4 4 0 0 0-3.994 4.222l3.556 64A4 4 0 0 0-83.987 72h80.431a4 4 0 0 0 3.994-3.778l3.556-64A4 4 0 0 0 0 0" style="fill:#2b2b2b;fill-opacity:1;fill-rule:nonzero;stroke:none" transform="matrix(1.33333 0 0 -1.33333 231.695 170.667)"/><path d="m0 0-28 4v20H0Z" style="fill:#262626;fill-opacity:1;fill-rule:nonzero;stroke:none" transform="matrix(1.33333 0 0 -1.33333 149.333 48)"/><path d="m0 0 28 4v20H0Z" style="fill:#262626;fill-opacity:1;fill-rule:nonzero;stroke:none" transform="matrix(1.33333 0 0 -1.33333 202.667 48)"/><path d="M197.333 48h-42.666V21.333h42.666z" style="fill:#354f9f;fill-opacity:1;fill-rule:nonzero;stroke:none;stroke-width:1.33333325"/><path d="M0 0h-47.095c-2.455 0-4.452-1.523-4.452-3.396v-45.208c0-1.873 1.997-3.396 4.452-3.396H0c2.455 0 4.453 1.523 4.453 3.396v45.208C4.453-1.523 2.455 0 0 0" style="fill:#dadbd5;fill-opacity:1;fill-rule:nonzero;stroke:none" transform="matrix(1.33333 0 0 -1.33333 170.063 245.333)"/><path d="M234.667 266.667h-5.334v-5.334h5.334z" style="fill:#262626;fill-opacity:1;fill-rule:nonzero;stroke:none;stroke-width:1.33333325"/><path d="M0 0a2 2 0 1 0-4.001.001A2 2 0 0 0 0 0" style="fill:#262626;fill-opacity:1;fill-rule:nonzero;stroke:none" transform="matrix(1.33333 0 0 -1.33333 213.333 253.333)"/><path d="M0 0a2 2 0 1 0-4.001.001A2 2 0 0 0 0 0" style="fill:#262626;fill-opacity:1;fill-rule:nonzero;stroke:none" transform="matrix(1.33333 0 0 -1.33333 144 253.333)"/><path d="M0 0a2 2 0 1 0-4.001.001A2 2 0 0 0 0 0" style="fill:#262626;fill-opacity:1;fill-rule:nonzero;stroke:none" transform="matrix(1.33333 0 0 -1.33333 197.333 296)"/><path d="M84 12v4l-5.336 6.672a8 8 0 0 0-.807 2.807L66.387 144H66l-8 24v8a4 4 0 0 0 4 4h10v64h116v-64h6a4 4 0 0 0 4-4v-8l-4-24h-.258l-7.638-118.385a8 8 0 0 0-.827-3.062L180 16v-4h-28v.268L150 12h-36l-2 .268V12z" style="fill:none;fill-opacity:1;fill-rule:nonzero;stroke:#1a1a1a;stroke-width:1.99999994;stroke-miterlimit:4;stroke-dasharray:none" transform="scale(1.33333)"/></svg>

<?xml version="1.0" encoding="UTF-8" standalone="no"?>
<svg
   xmlns:dc="http://purl.org/dc/elements/1.1/"
   xmlns:cc="http://creativecommons.org/ns#"
   xmlns:rdf="http://www.w3.org/1999/02/22-rdf-syntax-ns#"
   xmlns:svg="http://www.w3.org/2000/svg"
   xmlns="http://www.w3.org/2000/svg"
   xmlns:sodipodi="http://sodipodi.sourceforge.net/DTD/sodipodi-0.dtd"
   xmlns:inkscape="http://www.inkscape.org/namespaces/inkscape"
   viewBox="0 0 341.33334 341.33334"
   height="256"
   width="256"
   xml:space="preserve"
   id="svg2"
   version="1.1"
   sodipodi:docname="Capcom - CP System I.svg"
   inkscape:version="0.92.3 (2405546, 2018-03-11)"><sodipodi:namedview
     pagecolor="#ffffff"
     bordercolor="#666666"
     borderopacity="1"
     objecttolerance="10"
     gridtolerance="10"
     guidetolerance="10"
     inkscape:pageopacity="0"
     inkscape:pageshadow="2"
     inkscape:window-width="1920"
     inkscape:window-height="1001"
     id="namedview93"
     showgrid="false"
     inkscape:pagecheckerboard="true"
     inkscape:zoom="1.9555921"
     inkscape:cx="120.32021"
     inkscape:cy="94.864776"
     inkscape:window-x="-9"
     inkscape:window-y="-9"
     inkscape:window-maximized="1"
     inkscape:current-layer="svg2" /><metadata
     id="metadata8"><rdf:RDF><cc:Work
         rdf:about=""><dc:format>image/svg+xml</dc:format><dc:type
           rdf:resource="http://purl.org/dc/dcmitype/StillImage" /><dc:title /></cc:Work></rdf:RDF></metadata><defs
     id="defs6"><clipPath
       id="clipPath18"
       clipPathUnits="userSpaceOnUse"><path
         id="path16"
         d="M 0,256 H 256 V 0 H 0 Z" /></clipPath><clipPath
       id="clipPath26"
       clipPathUnits="userSpaceOnUse"><path
         id="path24"
         d="M 50,252 H 206 V 4 H 50 Z" /></clipPath><clipPath
       id="clipPath44"
       clipPathUnits="userSpaceOnUse"><path
         id="path42"
         d="M 0,256 H 256 V 0 H 0 Z" /></clipPath></defs><path
     inkscape:connector-curvature="0"
     d="M 250.66666,325.33333 H 95.999998 V 240 H 250.66666 Z"
     style="fill:#cccccc;fill-opacity:1;fill-rule:nonzero;stroke:none;stroke-width:1.33333325"
     id="path36" /><g
     id="g46"
     transform="matrix(1.3333333,0,0,-1.3333333,234.66666,272)"><path
       inkscape:connector-curvature="0"
       d="m 0,0 h -32 c -2.2,0 -4,1.8 -4,4 v 12 c 0,2.2 1.8,4 4,4 H 0 c 2.2,0 4,-1.8 4,-4 V 4 C 4,1.8 2.2,0 0,0"
       style="fill:#dadbd5;fill-opacity:1;fill-rule:nonzero;stroke:none"
       id="path48" /></g><g
     id="g50"
     transform="matrix(1.3333333,0,0,-1.3333333,234.66666,314.66666)"><path
       inkscape:connector-curvature="0"
       d="m 0,0 h -32 c -2.2,0 -4,1.8 -4,4 v 20 c 0,2.2 1.8,4 4,4 H 0 c 2.2,0 4,-1.8 4,-4 V 4 C 4,1.8 2.2,0 0,0"
       style="fill:#dadbd5;fill-opacity:1;fill-rule:nonzero;stroke:none"
       id="path52" /></g><g
     id="g54"
     transform="matrix(1.3333333,0,0,-1.3333333,247.03519,30.069604)"><path
       inkscape:connector-curvature="0"
       d="m 0,0 -5.276,6.552 -30,4 h -36 l -30,-4 -5.336,-6.671 c -0.439,-0.879 -0.713,-1.83 -0.807,-2.807 l -11.857,-122.522 h 128 L 0.828,-3.063 C 0.759,-1.997 0.478,-0.956 0,0"
       style="fill:#dadbd5;fill-opacity:1;fill-rule:nonzero;stroke:none"
       id="path56" /></g><g
     id="g58"
     transform="matrix(1.3333333,0,0,-1.3333333,258.66666,240)"><path
       inkscape:connector-curvature="0"
       d="m 0,0 h -132 c -2.209,0 -4,1.791 -4,4 v 8 H 4 V 4 C 4,1.791 2.209,0 0,0"
       style="fill:#dadbd5;fill-opacity:1;fill-rule:nonzero;stroke:none"
       id="path60" /></g><g
     id="g62"
     transform="matrix(1.3333333,0,0,-1.3333333,87.999998,192)"><path
       inkscape:connector-curvature="0"
       d="m 0,0 -8,-24 72,-4 68,4 -4,24 z"
       style="fill:#cccccc;fill-opacity:1;fill-rule:nonzero;stroke:none"
       id="path64" /></g><g
     id="g66"
     transform="matrix(1.3333333,0,0,-1.3333333,92.725198,204.4896)"><path
       inkscape:connector-curvature="0"
       d="m 0,0 -2.722,-8.166 c -0.415,-1.246 0.462,-2.547 1.773,-2.629 l 53.155,-3.322 c 5.494,-0.344 11.005,-0.332 16.498,0.034 l 49.169,3.278 c 1.307,0.087 2.179,1.386 1.765,2.628 L 116.912,0 c -0.272,0.816 -1.037,1.367 -1.897,1.367 H 1.897 C 1.037,1.367 0.272,0.816 0,0"
       style="fill:#354f9f;fill-opacity:1;fill-rule:nonzero;stroke:none"
       id="path68" /></g><g
     id="g70"
     transform="matrix(1.3333333,0,0,-1.3333333,247.99999,208)"><path
       inkscape:connector-curvature="0"
       d="m 0,0 c 0,-1.104 -1.343,-2 -3,-2 -1.657,0 -3,0.896 -3,2 0,1.104 1.343,2 3,2 1.657,0 3,-0.896 3,-2"
       style="fill:#ffffff;fill-opacity:1;fill-rule:nonzero;stroke:none"
       id="path72" /></g><g
     id="g74"
     transform="matrix(1.3333333,0,0,-1.3333333,242.66666,216)"><path
       inkscape:connector-curvature="0"
       d="m 0,0 c 0,-1.104 -1.343,-2 -3,-2 -1.657,0 -3,0.896 -3,2 0,1.104 1.343,2 3,2 1.657,0 3,-0.896 3,-2"
       style="fill:#ed4792;fill-opacity:1;fill-rule:nonzero;stroke:none"
       id="path76" /></g><g
     id="g78"
     transform="matrix(1.3333333,0,0,-1.3333333,237.33333,208)"><path
       inkscape:connector-curvature="0"
       d="m 0,0 c 0,-1.104 -1.343,-2 -3,-2 -1.657,0 -3,0.896 -3,2 0,1.104 1.343,2 3,2 1.657,0 3,-0.896 3,-2"
       style="fill:#ffffff;fill-opacity:1;fill-rule:nonzero;stroke:none"
       id="path80" /></g><g
     id="g82"
     transform="matrix(1.3333333,0,0,-1.3333333,231.99999,216)"><path
       inkscape:connector-curvature="0"
       d="m 0,0 c 0,-1.104 -1.343,-2 -3,-2 -1.657,0 -3,0.896 -3,2 0,1.104 1.343,2 3,2 1.657,0 3,-0.896 3,-2"
       style="fill:#ed4792;fill-opacity:1;fill-rule:nonzero;stroke:none"
       id="path84" /></g><g
     id="g86"
     transform="matrix(1.3333333,0,0,-1.3333333,226.66666,208)"><path
       inkscape:connector-curvature="0"
       d="m 0,0 c 0,-1.104 -1.343,-2 -3,-2 -1.657,0 -3,0.896 -3,2 0,1.104 1.343,2 3,2 1.657,0 3,-0.896 3,-2"
       style="fill:#ffffff;fill-opacity:1;fill-rule:nonzero;stroke:none"
       id="path88" /></g><g
     id="g90"
     transform="matrix(1.3333333,0,0,-1.3333333,182.66666,210.66667)"><path
       inkscape:connector-curvature="0"
       d="m 0,0 c 0,-1.104 -1.343,-2 -3,-2 -1.657,0 -3,0.896 -3,2 0,1.104 1.343,2 3,2 1.657,0 3,-0.896 3,-2"
       style="fill:#eac500;fill-opacity:1;fill-rule:nonzero;stroke:none"
       id="path92" /></g><g
     id="g94"
     transform="matrix(1.3333333,0,0,-1.3333333,172,210.66667)"><path
       inkscape:connector-curvature="0"
       d="m 0,0 c 0,-1.104 -1.343,-2 -3,-2 -1.657,0 -3,0.896 -3,2 0,1.104 1.343,2 3,2 1.657,0 3,-0.896 3,-2"
       style="fill:#eac500;fill-opacity:1;fill-rule:nonzero;stroke:none"
       id="path96" /></g><g
     id="g98"
     transform="matrix(1.3333333,0,0,-1.3333333,221.33333,216)"><path
       inkscape:connector-curvature="0"
       d="m 0,0 c 0,-1.104 -1.343,-2 -3,-2 -1.657,0 -3,0.896 -3,2 0,1.104 1.343,2 3,2 1.657,0 3,-0.896 3,-2"
       style="fill:#ed4792;fill-opacity:1;fill-rule:nonzero;stroke:none"
       id="path100" /></g><g
     id="g102"
     transform="matrix(1.3333333,0,0,-1.3333333,152,208)"><path
       inkscape:connector-curvature="0"
       d="m 0,0 c 0,-1.104 -1.343,-2 -3,-2 -1.657,0 -3,0.896 -3,2 0,1.104 1.343,2 3,2 1.657,0 3,-0.896 3,-2"
       style="fill:#ed4792;fill-opacity:1;fill-rule:nonzero;stroke:none"
       id="path104" /></g><g
     id="g106"
     transform="matrix(1.3333333,0,0,-1.3333333,146.66666,216)"><path
       inkscape:connector-curvature="0"
       d="m 0,0 c 0,-1.104 -1.343,-2 -3,-2 -1.657,0 -3,0.896 -3,2 0,1.104 1.343,2 3,2 1.657,0 3,-0.896 3,-2"
       style="fill:#ffffff;fill-opacity:1;fill-rule:nonzero;stroke:none"
       id="path108" /></g><g
     id="g110"
     transform="matrix(1.3333333,0,0,-1.3333333,141.33333,208)"><path
       inkscape:connector-curvature="0"
       d="m 0,0 c 0,-1.104 -1.343,-2 -3,-2 -1.657,0 -3,0.896 -3,2 0,1.104 1.343,2 3,2 1.657,0 3,-0.896 3,-2"
       style="fill:#ed4792;fill-opacity:1;fill-rule:nonzero;stroke:none"
       id="path112" /></g><g
     id="g114"
     transform="matrix(1.3333333,0,0,-1.3333333,136,216)"><path
       inkscape:connector-curvature="0"
       d="m 0,0 c 0,-1.104 -1.343,-2 -3,-2 -1.657,0 -3,0.896 -3,2 0,1.104 1.343,2 3,2 1.657,0 3,-0.896 3,-2"
       style="fill:#ffffff;fill-opacity:1;fill-rule:nonzero;stroke:none"
       id="path116" /></g><g
     id="g118"
     transform="matrix(1.3333333,0,0,-1.3333333,130.66666,208)"><path
       inkscape:connector-curvature="0"
       d="m 0,0 c 0,-1.104 -1.343,-2 -3,-2 -1.657,0 -3,0.896 -3,2 0,1.104 1.343,2 3,2 1.657,0 3,-0.896 3,-2"
       style="fill:#ed4792;fill-opacity:1;fill-rule:nonzero;stroke:none"
       id="path120" /></g><g
     id="g122"
     transform="matrix(1.3333333,0,0,-1.3333333,125.33333,216)"><path
       inkscape:connector-curvature="0"
       d="m 0,0 c 0,-1.104 -1.343,-2 -3,-2 -1.657,0 -3,0.896 -3,2 0,1.104 1.343,2 3,2 1.657,0 3,-0.896 3,-2"
       style="fill:#ffffff;fill-opacity:1;fill-rule:nonzero;stroke:none"
       id="path124" /></g><g
     id="g126"
     transform="matrix(1.3333333,0,0,-1.3333333,210.66666,212)"><path
       inkscape:connector-curvature="0"
       d="m 0,0 c 0,-1.657 -2.687,-3 -6,-3 -3.313,0 -6,1.343 -6,3 0,1.657 2.687,3 6,3 3.313,0 6,-1.343 6,-3"
       style="fill:#191919;fill-opacity:1;fill-rule:nonzero;stroke:none"
       id="path128" /></g><g
     id="g130"
     transform="matrix(1.3333333,0,0,-1.3333333,114.66666,212)"><path
       inkscape:connector-curvature="0"
       d="m 0,0 c 0,-1.657 -2.687,-3 -6,-3 -3.313,0 -6,1.343 -6,3 0,1.657 2.687,3 6,3 3.313,0 6,-1.343 6,-3"
       style="fill:#191919;fill-opacity:1;fill-rule:nonzero;stroke:none"
       id="path132" /></g><g
     id="g134"
     transform="matrix(1.3333333,0,0,-1.3333333,106.66666,213.33333)"><path
       inkscape:connector-curvature="0"
       d="M 0,0 V 0 C -1.1,0 -2,0.9 -2,2 V 6 C -2,7.1 -1.1,8 0,8 1.1,8 2,7.1 2,6 V 2 C 2,0.9 1.1,0 0,0"
       style="fill:#cccccc;fill-opacity:1;fill-rule:nonzero;stroke:none"
       id="path136" /></g><g
     id="g138"
     transform="matrix(1.3333333,0,0,-1.3333333,112,202.66667)"><path
       inkscape:connector-curvature="0"
       d="m 0,0 c 0,-2.209 -1.791,-4 -4,-4 -2.209,0 -4,1.791 -4,4 0,2.209 1.791,4 4,4 2.209,0 4,-1.791 4,-4"
       style="fill:#ed4792;fill-opacity:1;fill-rule:nonzero;stroke:none"
       id="path140" /></g><g
     id="g142"
     transform="matrix(1.3333333,0,0,-1.3333333,202.66666,213.33333)"><path
       inkscape:connector-curvature="0"
       d="M 0,0 V 0 C -1.1,0 -2,0.9 -2,2 V 6 C -2,7.1 -1.1,8 0,8 1.1,8 2,7.1 2,6 V 2 C 2,0.9 1.1,0 0,0"
       style="fill:#cccccc;fill-opacity:1;fill-rule:nonzero;stroke:none"
       id="path144" /></g><g
     id="g146"
     transform="matrix(1.3333333,0,0,-1.3333333,207.99999,202.66667)"><path
       inkscape:connector-curvature="0"
       d="m 0,0 c 0,-2.209 -1.791,-4 -4,-4 -2.209,0 -4,1.791 -4,4 0,2.209 1.791,4 4,4 2.209,0 4,-1.791 4,-4"
       style="fill:#ffffff;fill-opacity:1;fill-rule:nonzero;stroke:none"
       id="path148" /></g><g
     id="g150"
     transform="matrix(1.3333333,0,0,-1.3333333,245.22919,192)"><path
       inkscape:connector-curvature="0"
       d="m 0,0 h -105.765 c -2.27,0 -4.084,1.886 -3.997,4.153 l 7.696,98.004 c 0.081,1.04 0.949,1.843 1.993,1.843 h 96.226 c 1.076,0 1.957,-0.849 1.999,-1.923 l 3.846,-100 C 2.042,0.943 1.135,0 0,0"
       style="fill:#404040;fill-opacity:1;fill-rule:nonzero;stroke:none"
       id="path152" /></g><g
     id="g154"
     transform="matrix(1.3333333,0,0,-1.3333333,231.69533,170.66667)"><path
       inkscape:connector-curvature="0"
       d="m 0,0 h -87.543 c -2.296,0 -4.122,1.929 -3.994,4.222 l 3.556,64 c 0.117,2.119 1.871,3.778 3.994,3.778 h 80.431 c 2.123,0 3.876,-1.659 3.994,-3.778 l 3.556,-64 C 4.121,1.929 2.297,0 0,0"
       style="fill:#2b2b2b;fill-opacity:1;fill-rule:nonzero;stroke:none"
       id="path156" /></g><g
     id="g158"
     transform="matrix(1.3333333,0,0,-1.3333333,149.33333,48.000004)"><path
       inkscape:connector-curvature="0"
       d="M 0,0 -28,4 V 24 H 0 Z"
       style="fill:#262626;fill-opacity:1;fill-rule:nonzero;stroke:none"
       id="path160" /></g><g
     id="g162"
     transform="matrix(1.3333333,0,0,-1.3333333,202.66666,48.000004)"><path
       inkscape:connector-curvature="0"
       d="M 0,0 28,4 V 24 H 0 Z"
       style="fill:#262626;fill-opacity:1;fill-rule:nonzero;stroke:none"
       id="path164" /></g><path
     inkscape:connector-curvature="0"
     d="M 197.33333,48.000004 H 154.66666 V 21.333338 h 42.66667 z"
     style="fill:#354f9f;fill-opacity:1;fill-rule:nonzero;stroke:none;stroke-width:1.33333325"
     id="path166" /><g
     id="g168"
     transform="matrix(1.3333333,0,0,-1.3333333,170.0632,245.33333)"><path
       inkscape:connector-curvature="0"
       d="m 0,0 h -47.095 c -2.455,0 -4.452,-1.523 -4.452,-3.396 v -45.208 c 0,-1.873 1.997,-3.396 4.452,-3.396 H 0 c 2.455,0 4.453,1.523 4.453,3.396 V -3.396 C 4.453,-1.523 2.455,0 0,0"
       style="fill:#dadbd5;fill-opacity:1;fill-rule:nonzero;stroke:none"
       id="path170" /></g><path
     inkscape:connector-curvature="0"
     d="m 234.66666,266.66667 h -5.33333 v -5.33334 h 5.33333 z"
     style="fill:#262626;fill-opacity:1;fill-rule:nonzero;stroke:none;stroke-width:1.33333325"
     id="path172" /><g
     id="g174"
     transform="matrix(1.3333333,0,0,-1.3333333,213.33333,253.33333)"><path
       inkscape:connector-curvature="0"
       d="m 0,0 c 0,-1.104 -0.896,-2 -2,-2 -1.104,0 -2,0.896 -2,2 0,1.104 0.896,2 2,2 1.104,0 2,-0.896 2,-2"
       style="fill:#262626;fill-opacity:1;fill-rule:nonzero;stroke:none"
       id="path176" /></g><g
     id="g178"
     transform="matrix(1.3333333,0,0,-1.3333333,144,253.33333)"><path
       inkscape:connector-curvature="0"
       d="m 0,0 c 0,-1.104 -0.896,-2 -2,-2 -1.104,0 -2,0.896 -2,2 0,1.104 0.896,2 2,2 1.104,0 2,-0.896 2,-2"
       style="fill:#262626;fill-opacity:1;fill-rule:nonzero;stroke:none"
       id="path180" /></g><g
     id="g182"
     transform="matrix(1.3333333,0,0,-1.3333333,197.33333,296)"><path
       inkscape:connector-curvature="0"
       d="m 0,0 c 0,-1.104 -0.896,-2 -2,-2 -1.104,0 -2,0.896 -2,2 0,1.104 0.896,2 2,2 1.104,0 2,-0.896 2,-2"
       style="fill:#262626;fill-opacity:1;fill-rule:nonzero;stroke:none"
       id="path184" /></g><path
     style="fill:none;fill-opacity:1;fill-rule:nonzero;stroke:#1a1a1a;stroke-width:1.99999994;stroke-miterlimit:4;stroke-dasharray:none"
     d="M 84 12 L 84 16 L 78.664062 22.671875 C 78.225065 23.550875 77.951419 24.501516 77.857422 25.478516 L 66.386719 144 L 66 144 L 58 168 L 58 176 C 58 178.209 59.791 180 62 180 L 72 180 L 72 244 L 188 244 L 188 180 L 194 180 C 196.209 180 198 178.209 198 176 L 198 168 L 194 144 L 193.74219 144 L 186.10352 25.615234 C 186.03452 24.549235 185.75534 23.508735 185.27734 22.552734 L 180 16 L 180 12 L 152 12 L 152 12.267578 L 150 12 L 114 12 L 112 12.267578 L 112 12 L 84 12 z "
     transform="scale(1.3333334)"
     id="path888" /></svg>
